svg/emoji_u23eb.svg

<?xml version="1.0" encoding="UTF-8"?>
<svg width="128" height="128" enable-background="new 0 0 128 128" xmlns="http://www.w3.org/2000/svg"><linearGradient id="a" x1="64" x2="64" y1="4.25" y2="123.91" gradientUnits="userSpaceOnUse"><stop stop-color="#FFAB40" offset="0"/><stop stop-color="#FF6D00" offset="1"/></linearGradient><path d="m116 124h-104c-4.42 0-8-3.58-8-8v-104c0-4.42 3.58-8 8-8h104c4.42 0 8 3.58 8 8v104c0 4.42-3.58 8-8 8z" fill="url(#a)"/><g opacity=".2"><path d="m116 7c2.76 0 5 2.24 5 5v104c0 2.76-2.24 5-5 5h-104c-2.76 0-5-2.24-5-5v-104c0-2.76 2.24-5 5-5h104m0-3h-104c-4.42 0-8 3.58-8 8v104c0 4.42 3.58 8 8 8h104c4.42 0 8-3.58 8-8v-104c0-4.42-3.58-8-8-8z" fill="#424242"/></g><g fill="#424242" opacity=".2"><path d="m64 63c0.79 0 1.58 0.34 2.03 1.03l25.66 38.93c0.89 1.36-0.23 3.05-2.03 3.05h-51.32c-1.79 0-2.91-1.69-2.03-3.05l25.66-38.93c0.45-0.69 1.24-1.03 2.03-1.03m0-3c-1.86 0-3.56 0.89-4.54 2.38l-25.65 38.92c-1 1.52-1.08 3.37-0.22 4.96 0.92 1.69 2.74 2.74 4.75 2.74h51.32c2.02 0 3.84-1.05 4.75-2.74 0.86-1.58 0.78-3.43-0.21-4.95l-25.67-38.93c-0.97-1.49-2.67-2.38-4.53-2.38z"/><path d="m64 22c0.79 0 1.58 0.35 2.03 1.05l25.66 39.83c0.89 1.39-0.23 3.12-2.03 3.12h-51.32c-1.79 0-2.91-1.73-2.03-3.12l25.66-39.83c0.45-0.7 1.24-1.05 2.03-1.05m0-3c-1.88 0-3.58 0.91-4.55 2.43l-25.66 39.83c-0.99 1.55-1.05 3.42-0.18 5.01 0.92 1.68 2.73 2.73 4.73 2.73h51.32c1.99 0 3.81-1.05 4.73-2.73 0.87-1.6 0.81-3.47-0.18-5l-25.66-39.84c-0.97-1.52-2.67-2.43-4.55-2.43z"/></g><g fill="#FAFAFA"><path d="M64,106H38.34c-1.79,0-2.91-1.69-2.03-3.05l25.66-38.93c0.9-1.37,3.16-1.37,4.05,0l25.66,38.93 c0.89,1.36-0.23,3.05-2.03,3.05H64z"/><path d="M64,66H38.34c-1.79,0-2.91-1.73-2.03-3.12l25.66-39.83c0.9-1.4,3.16-1.4,4.05,0l25.66,39.83 c0.89,1.39-0.23,3.12-2.03,3.12H64z"/></g></svg>

<svg width="128" height="128" style="enable-background:new 0 0 128 128;" xmlns="http://www.w3.org/2000/svg" xmlns:xlink="http://www.w3.org/1999/xlink">
  <g>
    <linearGradient id="SVGID_1_" gradientUnits="userSpaceOnUse" x1="64" x2="64" y1="4.25" y2="123.9133">
      <stop offset="0" style="stop-color:#FFAB40"/>
      <stop offset="1" style="stop-color:#FF6D00"/>
    </linearGradient>
    <path d="M116,124H12c-4.42,0-8-3.58-8-8V12c0-4.42,3.58-8,8-8h104c4.42,0,8,3.58,8,8v104 C124,120.42,120.42,124,116,124z" style="fill:url(#SVGID_1_);"/>
    <g style="opacity:0.2;">
      <path d="M116,7c2.76,0,5,2.24,5,5v104c0,2.76-2.24,5-5,5H12c-2.76,0-5-2.24-5-5V12c0-2.76,2.24-5,5-5H116 M116,4H12c-4.42,0-8,3.58-8,8v104c0,4.42,3.58,8,8,8h104c4.42,0,8-3.58,8-8V12C124,7.58,120.42,4,116,4L116,4z" style="fill:#424242;"/>
    </g>
    <g style="opacity:0.2;">
      <path d="M64,63c0.79,0,1.58,0.34,2.03,1.03l25.66,38.93c0.89,1.36-0.23,3.05-2.03,3.05H64H38.34 c-1.79,0-2.91-1.69-2.03-3.05l25.66-38.93C62.42,63.34,63.21,63,64,63 M64,60c-1.86,0-3.56,0.89-4.54,2.38L33.81,101.3 c-1,1.52-1.08,3.37-0.22,4.96c0.92,1.69,2.74,2.74,4.75,2.74H64h25.66c2.02,0,3.84-1.05,4.75-2.74c0.86-1.58,0.78-3.43-0.21-4.95 L68.53,62.38C67.56,60.89,65.86,60,64,60L64,60z" style="fill:#424242;"/>
      <path d="M64,22c0.79,0,1.58,0.35,2.03,1.05l25.66,39.83c0.89,1.39-0.23,3.12-2.03,3.12H64H38.34 c-1.79,0-2.91-1.73-2.03-3.12l25.66-39.83C62.42,22.35,63.21,22,64,22 M64,19c-1.88,0-3.58,0.91-4.55,2.43L33.79,61.26 c-0.99,1.55-1.05,3.42-0.18,5.01c0.92,1.68,2.73,2.73,4.73,2.73H64h25.66c1.99,0,3.81-1.05,4.73-2.73c0.87-1.6,0.81-3.47-0.18-5 L68.55,21.43C67.58,19.91,65.88,19,64,19L64,19z" style="fill:#424242;"/>
    </g>
    <g>
      <path d="M64,106H38.34c-1.79,0-2.91-1.69-2.03-3.05l25.66-38.93c0.9-1.37,3.16-1.37,4.05,0l25.66,38.93 c0.89,1.36-0.23,3.05-2.03,3.05H64z" style="fill:#FAFAFA;"/>
      <path d="M64,66H38.34c-1.79,0-2.91-1.73-2.03-3.12l25.66-39.83c0.9-1.4,3.16-1.4,4.05,0l25.66,39.83 c0.89,1.39-0.23,3.12-2.03,3.12H64z" style="fill:#FAFAFA;"/>
    </g>
  </g>
</svg>
